X:1
T:O Christians, Leagued Together
T:O Christians, Leagued Together
T:George C. F. Haas
T:Lillian Weaver Cassaday, 1893
T:Public Domain Courtesy of the Cyber Hymnal™
T:Public Domain Courtesy of the Cyber Hymnal™
C:George C. F. Haas
Z:Public Domain
Z:Courtesy of the Cyber Hymnal™
%%score ( 1 2 ) ( 3 4 )
L:1/8
Q:1/4=110
M:4/4
K:C
V:1 treble 
V:2 treble 
V:3 bass 
V:4 bass 
V:1
 D2 | [D^F]2 D2 [^CG]2 [CE]2 | [DB]4 [DA]2 [D^F]2 | E2 E2 [^CE]3 [D^F] x | [^CE]6 [CE]2 | %5
w: 1.~O|Christ- ians, leagued to-|ge- ther to|bat- tle for the|right A-|
w: 2.~Then|‘on- ward’ be the|war cry; and|on- ward still, so|long As|
w: 3.~We|proud- ly bear as|ban- ner a|cross with- in the|heart, To|
 [D^F]3 [DF] [D^G]3 [DG] | [EA]2 [EA]2 [^FB]2 [Fc]2 | [E^c]4 B4 | [^CA]6 [CE]2 | %9
w: rise and don your|ar- mor, put the|foe to|flight! We’ve|
w: we have self to|con- quer, souls to|cheer with|song. Let|
w: show that we have|chos- en Christ, the|bet- ter|part. Then|
 [^CG]3 [CG] [CG]2 [CG]2 | [E^F]4 [DF]2 [DF]2 | [^CE]3 [CE] [C^F]2 [^A,C]2 | [B,D]6 D2 | %13
w: giv- en our al-|le- giance to|serve with- out sur-|cease The|
w: sound the mar- tial|mu- sic, ring|out the bu- gle|call To|
w: joy and peace and|com- fort shall|blos- som as a|rose, Un-|
 [DB]3 [DB] [G^c]3 [Gc] | [Dd]2 D6 | z2 [C^D]2 E2 [EG]2 | [D^F]4 [^CE]4 | D6 ||"^Refrain" ^c2 | %19
w: might- y Lord of|ar- mies|and gen- tle|Prince of|Peace.||
w: ral- ly for the|con- flict|our peo- ple|one and|all.|All|
w: til our earth- ly|bless- ings|the worth of|Heav’n dis-|close.||
 [^Fd]3 [FA] F2 [EA]2 | d4 [^Fd]2 [EA]2 | [DB]3 [DG] [De]2 [^Gd]2 | [A^c]6 A2 | %23
w: ||||
w: hail, our glor- ious|Sav- ior! We|march where Thou hast|trod, To|
w: ||||
 [A^f]2 [G^c]2 [^Fd]2 [E^A]2 | ([DB]2 [C^F]2) [B,G]2 [B,E]2 | [DA]2 [D^A]2 [DB]2 [B,G^c]2 | %26
w: |||
w: seek Thy house of|tri- * umph, The|ci- ty of our|
w: |||
 [D^Fd]6 |] %27
w: |
w: God.|
w: |
V:2
 D2 | x2 D2 x4 | x8 | x9 | x8 | x8 | x8 | x4 (E2 D2) | x8 | x8 | x8 | x8 | x6 D2 | x8 | x2 D6 | %15
 x8 | x8 | D6 || ^c2 | x8 | (G2 E2) x4 | x8 | x6 A2 | x8 | x8 | x8 | x6 |] %27
V:3
 [D,^F,]2 | [D,A,]2 [^F,A,]2 [E,A,]2 [G,A,]2 | [F,^G,]4 [^F,A,]2 [F,A,]2 | %3
 [G,B,]2 [G,B,]2 A,3 z x | A,6 A,2 | [D,A,]3 [D,A,] [B,,E,]3 [B,,E,] | %6
 [^C,A,]2 [C,A,]2 [D,A,]2 [^D,A,]2 | [E,A,]4 [E,^G,]4 | [A,,E,]6 A,2 | %9
 [A,,E,]3 [A,,E,] [^A,,E,]2 [A,,E,]2 | [B,,B,]4 [B,,B,]2 [B,,D,]2 | %11
 [^A,,^F,]3 [A,,F,] [A,,F,]2 [^F,,F,]2 | [B,,^F,]6 [B,,B,]2 | [G,B,]3 [G,B,] [E,A,]3 [E,A,] | %14
 [^F,A,]2 [F,A,]6 | z2 [^F,A,]2 [G,B,]2 [E,B,]2 | A,4 [A,,G,]4 | [D,^F,]6 || A,2 | %19
 [D,A,]3 [D,A,] [D,D]2 [D,^C]2 | (B,2 ^A,2) [D,=A,]2 [^F,A,]2 | [G,B,]3 B, [^G,B,]2 [E,E]2 | %22
 [A,E]6 [A,^C]2 | D2 [^A,E]2 [B,D]2 [^F,^C]2 | ([G,B,]2 [^D,A,]2) [E,G,]2 G,2 | %25
 [A,,^F,]2 [A,,=F,]2 [A,,E,G,]2 [A,,E,G,]2 | [D,A,]6 |] %27
V:4
 x2 | x8 | x8 | x4 E,2 (D,2 A,) | A,6 A,2 | x8 | x8 | x8 | x6 A,2 | x8 | x8 | x8 | x8 | x8 | x8 | %15
 x8 | x8 | x6 || A,2 | x8 | D,4 x4 | x8 | x8 | x8 | x8 | x8 | x6 |] %27

